X:1
T:The Minstrel Boy
M:C
L:1/4
K:HP
Z:Transcribed 1 March, 2013 by Stephen Beitzel
[|: e/2 | {gAGAG}A> B {g}d/2c/2 {gBd}B{G}A | {gcd}c {gef}e {ag}a f/2a/2 | {fg}f> e {g}c/2>d/2 {gef}e/2c/2 | {gBd}B2 {G}A> :|]
| {gcd}c/2 e/4 | {ag}a {f}g {fg}f {gf}g/2a/2 | {f}g {fg}f {gef}e> {A}e | {g}f> c {GdG}c> e | {g}f/2 e/2{g}f/2g/2 {ag}a {g}a |
| {gAGAG}A> B {g}d/2c/2 {gBd}B{G}A | {gcd}c {gef}e {ag}a f/2a/2 | {fg}f> e {g}c/2>d/2 {gef}e/2c/2 | {gBd}B2 {G}A> |